icons/discord.svg

<svg fill="none" height="12" viewBox="0 0 12 12" width="12" xmlns="http://www.w3.org/2000/svg"><rect fill="#5865f2" height="12" rx="2.5" width="12"/><path d="m8.77676 3.47359c-.52561-.24064-1.08049-.41135-1.65046-.50778-.07799.13942-.14857.28288-.21142.42976-.60713-.09149-1.22454-.09149-1.83168 0-.06288-.14687-.13345-.29032-.21142-.42976-.57034.09724-1.12558.26836-1.65172.50904-1.04451 1.54538-1.32766 3.05238-1.18609 4.53798.6117.45195 1.29636.79566 2.02422 1.0162.1639-.22043.30892-.45428.43354-.69907-.23669-.0884-.46515-.19747-.68271-.32594.05726-.04153.11326-.08432.16737-.12584.63307.29771 1.32402.45207 2.0236.45207.69957 0 1.39052-.15436 2.02359-.45207.05474.04467.11074.08746.16737.12584-.21798.12868-.44685.23795-.68397.32657.12447.24467.2695.47833.43354.69844.72849-.21965 1.41367-.5632 2.02548-1.01557.1661-1.72282-.28378-3.21598-1.18924-4.53987zm-4.1057 3.6256c-.39452 0-.72046-.35803-.72046-.79848 0-.44046.31461-.80164.7192-.80164s.72802.36118.72109.80164c-.00692.44045-.31775.79848-.71983.79848zm2.65785 0c-.39515 0-.71983-.35803-.71983-.79848 0-.44046.31461-.80164.71983-.80164s.72613.36118.71921.80164c-.00692.44045-.31713.79848-.71921.79848z" fill="#fff"/></svg>

<svg width="12" height="12" viewBox="0 0 12 12" fill="none" xmlns="http://www.w3.org/2000/svg">
<rect width="12" height="12" rx="2" fill="#5865F2"/>
<path d="M8.77676 3.47359C8.25115 3.23295 7.69627 3.06224 7.1263 2.96581C7.04831 3.10523 6.97773 3.24869 6.91488 3.39557C6.30775 3.30408 5.69034 3.30408 5.0832 3.39557C5.02032 3.2487 4.94975 3.10525 4.87178 2.96581C4.30144 3.06305 3.7462 3.23417 3.22006 3.47485C2.17555 5.02023 1.8924 6.52723 2.03397 8.01283C2.64567 8.46478 3.33033 8.80849 4.05819 9.02903C4.22209 8.8086 4.36711 8.57475 4.49173 8.32996C4.25504 8.24156 4.02658 8.13249 3.80902 8.00402C3.86628 7.96249 3.92228 7.9197 3.97639 7.87818C4.60946 8.17589 5.30041 8.33025 5.99999 8.33025C6.69956 8.33025 7.39051 8.17589 8.02358 7.87818C8.07832 7.92285 8.13432 7.96564 8.19095 8.00402C7.97297 8.1327 7.7441 8.24197 7.50698 8.33059C7.63145 8.57526 7.77648 8.80892 7.94052 9.02903C8.66901 8.80938 9.35419 8.46582 9.966 8.01346C10.1321 6.29064 9.68222 4.79748 8.77676 3.47359ZM4.67106 7.09919C4.27653 7.09919 3.9506 6.74116 3.9506 6.3007C3.9506 5.86025 4.26521 5.49907 4.6698 5.49907C5.07439 5.49907 5.39782 5.86025 5.39089 6.3007C5.38397 6.74116 5.07314 7.09919 4.67106 7.09919ZM7.32891 7.09919C6.93376 7.09919 6.60908 6.74116 6.60908 6.3007C6.60908 5.86025 6.92369 5.49907 7.32891 5.49907C7.73413 5.49907 8.05504 5.86025 8.04812 6.3007C8.0412 6.74116 7.73099 7.09919 7.32891 7.09919Z" fill="white"/>
</svg>
